svg/transport/bus_fill.svg

<?xml version="1.0" encoding="UTF-8"?>
<svg width="24px" height="24px" viewBox="0 0 24 24" version="1.1" xmlns="http://www.w3.org/2000/svg" xmlns:xlink="http://www.w3.org/1999/xlink">
    <title>bus_fill</title>
    <g id="页面-1" stroke="none" stroke-width="1" fill="none" fill-rule="evenodd">
        <g id="Transport" transform="translate(-192.000000, -48.000000)">
            <g id="bus_fill" transform="translate(192.000000, 48.000000)">
                 <path d="M24,0 L24,24 L0,24 L0,0 L24,0 Z M12.5934901,23.257841 L12.5819402,23.2595131 L12.5108777,23.2950439 L12.4918791,23.2987469 L12.4918791,23.2987469 L12.4767152,23.2950439 L12.4056548,23.2595131 C12.3958229,23.2563662 12.3870493,23.2590235 12.3821421,23.2649074 L12.3780323,23.275831 L12.360941,23.7031097 L12.3658947,23.7234994 L12.3769048,23.7357139 L12.4804777,23.8096931 L12.4953491,23.8136134 L12.4953491,23.8136134 L12.5071152,23.8096931 L12.6106902,23.7357139 L12.6232938,23.7196733 L12.6232938,23.7196733 L12.6266527,23.7031097 L12.609561,23.275831 C12.6075724,23.2657013 12.6010112,23.2592993 12.5934901,23.257841 L12.5934901,23.257841 Z M12.8583906,23.1452862 L12.8445485,23.1473072 L12.6598443,23.2396597 L12.6498822,23.2499052 L12.6498822,23.2499052 L12.6471943,23.2611114 L12.6650943,23.6906389 L12.6699349,23.7034178 L12.6699349,23.7034178 L12.678386,23.7104931 L12.8793402,23.8032389 C12.8914285,23.8068999 12.9022333,23.8029875 12.9078286,23.7952264 L12.9118235,23.7811639 L12.8776777,23.1665331 C12.8752882,23.1545897 12.8674102,23.1470016 12.8583906,23.1452862 L12.8583906,23.1452862 Z M12.1430473,23.1473072 C12.1332178,23.1423925 12.1221763,23.1452606 12.1156365,23.1525954 L12.1099173,23.1665331 L12.0757714,23.7811639 C12.0751323,23.7926639 12.0828099,23.8018602 12.0926481,23.8045676 L12.108256,23.8032389 L12.3092106,23.7104931 L12.3186497,23.7024347 L12.3186497,23.7024347 L12.3225043,23.6906389 L12.340401,23.2611114 L12.337245,23.2485176 L12.337245,23.2485176 L12.3277531,23.2396597 L12.1430473,23.1473072 Z" id="MingCute" fill-rule="nonzero"></path>
                <path d="M11.0217,2.99997 L15.9799,2.99997 C15.9938,2.9997525 16.0077,2.9997525 16.0217,2.99997 L18,2.99997 C19.6569,2.99997 21,4.34312 21,5.99997 C21.5523,5.99997 22,6.44769 22,6.99998 L22,8.99998 C22,9.55226 21.5523,9.99998 21,9.99998 L21,17 C21,17.7403 20.5978,18.3866 20,18.7324 L20,19.5 C20,20.3284 19.3284,21 18.5,21 C17.6716,21 17,20.3284 17,19.5 L17,19 L7,19 L7,19.5 C7,20.3284 6.32843,21 5.5,21 C4.67157,21 4,20.3284 4,19.5 L4,18.7324 C3.4022,18.3866 3,17.7403 3,17 L3,9.99998 C2.44772,9.99998 2,9.55226 2,8.99998 L2,6.99998 C2,6.44769 2.44772,5.99997 3,5.99997 C3,4.34312 4.34315,2.99997 6,2.99997 L10.9799,2.99997 C10.9938,2.9997525 11.0077,2.9997525 11.0217,2.99997 Z M11.618,4.99997 L14.382,4.99997 L13.1056,7.55276 C12.8586,8.04674 13.0588,8.64741 13.5528,8.8944 C14.0468,9.14139 14.6474,8.94117 14.8944,8.44719 L16.618,4.99997 L18,4.99997 C18.5523,4.99997 19,5.44769 19,5.99997 L19,11 L5,11 L5,5.99997 C5,5.44769 5.44772,4.99997 6,4.99997 L9.38197,4.99997 L8.10557,7.55276 C7.85858,8.04674 8.05881,8.64741 8.55279,8.8944 C9.04676,9.14139 9.64744,8.94117 9.89443,8.44719 L11.618,4.99997 Z M6,15 C6,14.4477 6.44772,14 7,14 L8,14 C8.55228,14 9,14.4477 9,15 C9,15.5523 8.55228,16 8,16 L7,16 C6.44772,16 6,15.5523 6,15 Z M15,15 C15,14.4477 15.4477,14 16,14 L17,14 C17.5523,14 18,14.4477 18,15 C18,15.5523 17.5523,16 17,16 L16,16 C15.4477,16 15,15.5523 15,15 Z" id="形状" fill="#09244B"></path>
            </g>
        </g>
    </g>
</svg>

<svg xmlns="http://www.w3.org/2000/svg" width="24" height="24"><g fill="none" fill-rule="evenodd"><path d="M24 0v24H0V0h24ZM12.593 23.258l-.011.002-.071.035-.02.004-.014-.004-.071-.035c-.01-.004-.019-.001-.024.005l-.004.01-.017.428.005.02.01.013.104.074.015.004.012-.004.104-.074.012-.016.004-.017-.017-.427c-.002-.01-.009-.017-.017-.018Zm.265-.113-.013.002-.185.093-.01.01-.003.011.018.43.005.012.008.007.201.093c.012.004.023 0 .029-.008l.004-.014-.034-.614c-.003-.012-.01-.02-.02-.022Zm-.715.002a.023.023 0 0 0-.027.006l-.006.014-.034.614c0 .012.007.02.017.024l.015-.002.201-.093.01-.008.004-.011.017-.43-.003-.012-.01-.01-.184-.092Z"/><path fill="#09244B" d="M11.022 3H18a3 3 0 0 1 3 3 1 1 0 0 1 1 1v2a1 1 0 0 1-1 1v7a2 2 0 0 1-1 1.732v.768a1.5 1.5 0 0 1-3 0V19H7v.5a1.5 1.5 0 0 1-3 0v-.768A2 2 0 0 1 3 17v-7a1 1 0 0 1-1-1V7a1 1 0 0 1 1-1 3 3 0 0 1 3-3h5.022Zm.596 2h2.764l-1.276 2.553a1 1 0 1 0 1.788.894L16.618 5H18a1 1 0 0 1 1 1v5H5V6a1 1 0 0 1 1-1h3.382L8.106 7.553a1 1 0 0 0 1.788.894L11.618 5ZM6 15a1 1 0 0 1 1-1h1a1 1 0 1 1 0 2H7a1 1 0 0 1-1-1Zm9 0a1 1 0 0 1 1-1h1a1 1 0 1 1 0 2h-1a1 1 0 0 1-1-1Z"/></g></svg>
